X:207
M:C
L:1/8
K:A Minor
E|A>BA>E A/A/A A>B|GDG>B d/c/B/A/ G>B|
e|a>ea>c A/A/A a2|g>de>g d/c/B/A/ G>e|a>ea>c A/A/A a2|
g>dg>B e2 A>e|a>ea>c A/A/A a2|g>de>g d/c/B/A/ G>B|

